icon-svg/fortinet.svg

<svg xmlns="http://www.w3.org/2000/svg" fill="#44739e" viewBox="0 0 24 24"><path d="M9.21 13.18h5.558v3.721H9.21ZM1.999 7.903h5.665v3.723H1.999ZM16.308 16.9h3.5a3.813 3.813 0 0 0 2.178-3.257v-.464h-5.678ZM9.21 2.632h5.558v3.723H9.21Zm7.103 5.276h5.682v3.723h-5.682Zm5.677-1.972a3.72 3.72 0 0 0-2.325-3.3h-3.356v3.719h5.681ZM7.659 2.635h-3.34a3.724 3.724 0 0 0-2.325 3.307v.416h5.665ZM1.994 13.179v.46a3.81 3.81 0 0 0 2.18 3.261h3.485v-3.722H1.994Zm3.916 7.6h.9v.602h-.9zm-1.168-.855h.917v.603h-.917zm2.317 1.457h.567a.618.618 0 0 0 .353-.528v-.075h-.92Zm-1.149-2.31h.9v.603h-.9zm1.15.854h.92v.603h-.92Zm.919-.319a.6.6 0 0 0-.377-.535h-.543v.6h.92zm-2.32-.535h-.541a.6.6 0 0 0-.376.536v.067h.917zm-.917 1.707v.075a.616.616 0 0 0 .352.528h.565v-.6zm13.236-.308h1.163v-.486h-1.163V19.6h1.675v-.503h-2.226v2.261l-.002.001h2.238v-.503h-1.685Zm-1.149-1.18a.8.8 0 0 0-.529-.19h-1.784v2.264h.554V19.6h1.245a.176.176 0 0 1 .134.059c.052.053.045.206.045.206v1.5h.553V19.9a.8.8 0 0 0-.218-.61m3.097-.194v.503h.522v1.759H21v-1.759h1v-.503zm-6.382.143v2.12h.553v-2.262h-.553zm-2.345.36h.521v1.759h.553v-1.759h1v-.503h-2.074ZM2 19.096v2.262h.553v-.889h1.673v-.486H2.553v-.384h1.945v-.504H2Zm8.11.004H8.386v2.261h.552v-.889h1.137a.63.63 0 0 1 .219.019.113.113 0 0 1 .058.1v.772h.536v-.648a.408.408 0 0 0-.077-.291.2.2 0 0 0-.065-.049l-.02-.01a.54.54 0 0 0 .187-.4V19.8a.694.694 0 0 0-.159-.52.877.877 0 0 0-.644-.18m.25.767a.117.117 0 0 1-.057.1.7.7 0 0 1-.248.02H8.938V19.6h1.076a.77.77 0 0 1 .289.019.117.117 0 0 1 .058.1z"/></svg>

<?xml version="1.0" encoding="UTF-8"?>
<svg width="24px" fill="#44739e" height="24px" viewBox="0 0 24 24" version="1.1" xmlns="http://www.w3.org/2000/svg" xmlns:xlink="http://www.w3.org/1999/xlink">
            <path d="m 9.21,13.18 h 5.558 v 3.721 H 9.21 Z M 1.999,7.9029999 H 7.6639999 V 11.626 H 1.999 Z M 16.308,16.9 h 3.5 a 3.813,3.813 0 0 0 2.178,-3.257 V 13.179 H 16.308 Z M 9.21,2.632 h 5.558 V 6.355 H 9.21 Z m 7.103,5.276 h 5.682 v 3.723 H 16.313 Z M 21.99,5.936 a 3.72,3.72 0 0 0 -2.325,-3.3 H 16.309 V 6.355 H 21.99 Z M 7.659,2.635 H 4.319 A 3.724,3.724 0 0 0 1.994,5.942 V 6.358 H 7.659 Z M 1.994,13.179 v 0.46 A 3.81,3.81 0 0 0 4.174,16.9 H 7.659 V 13.178 H 1.994 Z m 3.9159998,7.599999 h 0.9 v 0.602 h -0.9 z M 4.7420001,19.924 h 0.917 v 0.603 h -0.917 z M 7.059,21.381 H 7.626 A 0.618,0.618 0 0 0 7.979,20.853 V 20.778 H 7.059 Z M 5.9099998,19.070999 h 0.9 v 0.603 h -0.9 z m 1.1500001,0.854 H 7.98 v 0.603 H 7.0599999 Z M 7.979,19.606 A 0.6,0.6 0 0 0 7.602,19.071 H 7.059 v 0.6 h 0.92 z M 5.659,19.071 H 5.118 a 0.6,0.6 0 0 0 -0.376,0.536 v 0.067 h 0.917 z m -0.917,1.707 v 0.075 a 0.616,0.616 0 0 0 0.352,0.528 h 0.565 v -0.6 z M 17.978,20.47 h 1.163 V 19.984 H 17.978 V 19.6 h 1.675 v -0.503 h -2.226 v 0.142 2.119 l -0.002,0.001 h 2.238 V 20.856 H 17.978 Z M 16.829,19.29 A 0.8,0.8 0 0 0 16.3,19.1 h -1.784 v 2.264 H 15.07 V 19.6 h 1.245 a 0.176,0.176 0 0 1 0.134,0.059 c 0.052,0.053 0.045,0.206 0.045,0.206 v 1.5 h 0.553 V 19.9 a 0.8,0.8 0 0 0 -0.218,-0.61 z m 3.097,-0.194 v 0.503 h 0.522 v 1.759 0 H 21 v -1.759 h 1 v -0.503 z m -6.382,0.143 v 2.119 0.001 h 0.553 v -2.262 h -0.553 z m -2.345,0.36 h 0.521 v 1.759 h 10e-4 0.552 v -1.759 h 1 V 19.096 H 11.199 Z M 2,19.096 v 0.142 2.12 H 2.553 V 20.469 H 4.226 V 19.983 H 2.553 V 19.599 H 4.498 V 19.095 H 2 Z M 10.11,19.1 H 8.386 v 2.261 h 0.552 v -0.889 h 1.137 a 0.626,0.626 0 0 1 0.219,0.019 0.113,0.113 0 0 1 0.058,0.1 v 0.772 h 0.536 v -0.648 a 0.408,0.408 0 0 0 -0.077,-0.291 0.2,0.2 0 0 0 -0.065,-0.049 l -0.02,-0.01 a 0.539,0.539 0 0 0 0.187,-0.4 V 19.8 A 0.694,0.694 0 0 0 10.754,19.28 0.877,0.877 0 0 0 10.11,19.1 Z m 0.25,0.767 a 0.117,0.117 0 0 1 -0.057,0.1 0.694,0.694 0 0 1 -0.248,0.02 H 8.938 V 19.6 h 1.076 a 0.774,0.774 0 0 1 0.289,0.019 0.117,0.117 0 0 1 0.058,0.1 z"/>

</svg>
